assets/images/img_lightbulb.svg

<svg width="64" height="102" viewBox="0 0 64 102" fill="none" xmlns="http://www.w3.org/2000/svg">
<path d="M39.9317 97.7781C39.9317 97.7781 36.4506 98.7371 32.0024 98.6074C27.5522 98.7371 24.0731 97.7781 24.0731 97.7781H23.8866C15.1585 94.3313 15.2862 83.2111 18.2503 75.6755C20.4156 70.171 25.5876 64.8125 32.0024 64.8125C38.4172 64.8125 43.5892 70.171 45.7524 75.6755C48.7165 83.2111 48.8443 94.3313 40.1162 97.7781H39.9317Z" fill="#FFF3C5"/>
<path d="M54.149 77.2136C54.9762 80.8065 55.1384 83.9137 55.0654 86.2987C55.0208 87.7165 54.8525 89.1713 54.447 90.5109C53.8185 92.5996 52.6142 94.4043 50.4043 95.3344C50.4043 95.3344 54.5971 96.5999 54.3558 99.4417C54.1145 102.281 46.6313 102.218 43.2617 101.771C39.957 101.335 39.4116 99.8533 39.9286 97.779H40.1131C48.8412 94.3322 48.7135 83.212 45.7493 75.6764C43.5861 70.1718 38.4121 64.8134 31.9993 64.8134C25.5865 64.8134 20.4125 70.1718 18.2472 75.6764C15.2831 83.212 15.1554 94.3322 23.8835 97.779H24.07C24.585 99.8533 24.0396 101.335 20.7349 101.771C17.3653 102.218 9.88202 102.281 9.64075 99.4417C9.39949 96.5999 13.5942 95.3344 13.5942 95.3344C9.96514 93.8075 9.04469 89.9224 8.93318 86.2987C8.86019 83.9137 9.02238 80.8044 9.84958 77.2136C8.8906 78.333 4.78099 77.9214 4.18087 75.0591C3.58278 72.1946 4.8925 68.5174 7.80795 63.2207C10.2976 58.6936 13.6814 55.5966 17.1301 53.3516C21.6249 53.9771 26.5293 54.4237 31.9993 54.4237C37.4693 54.4237 42.3737 53.9771 46.8685 53.3516C50.3151 55.5966 53.7009 58.6936 56.1906 63.2207C59.104 68.5174 60.4138 72.1946 59.8157 75.0591C59.2156 77.9214 55.1059 78.333 54.149 77.2136Z" fill="#F8C788"/>
<mask id="mask0_2207_18496" style="mask-type:luminance" maskUnits="userSpaceOnUse" x="4" y="53" width="56" height="49">
<path d="M54.149 77.2136C54.9762 80.8065 55.1384 83.9137 55.0654 86.2987C55.0208 87.7165 54.8525 89.1713 54.447 90.5109C53.8185 92.5996 52.6142 94.4043 50.4043 95.3344C50.4043 95.3344 54.5971 96.5999 54.3558 99.4417C54.1145 102.281 46.6313 102.218 43.2617 101.771C39.957 101.335 39.4116 99.8533 39.9286 97.779H40.1131C48.8412 94.3322 48.7135 83.212 45.7493 75.6764C43.5861 70.1718 38.4121 64.8134 31.9993 64.8134C25.5865 64.8134 20.4125 70.1718 18.2472 75.6764C15.2831 83.212 15.1554 94.3322 23.8835 97.779H24.07C24.585 99.8533 24.0396 101.335 20.7349 101.771C17.3653 102.218 9.88202 102.281 9.64075 99.4417C9.39949 96.5999 13.5942 95.3344 13.5942 95.3344C9.96514 93.8075 9.04469 89.9224 8.93318 86.2987C8.86019 83.9137 9.02238 80.8044 9.84958 77.2136C8.8906 78.333 4.78099 77.9214 4.18087 75.0591C3.58278 72.1946 4.8925 68.5174 7.80795 63.2207C10.2976 58.6936 13.6814 55.5966 17.1301 53.3516C21.6249 53.9771 26.5293 54.4237 31.9993 54.4237C37.4693 54.4237 42.3737 53.9771 46.8685 53.3516C50.3151 55.5966 53.7009 58.6936 56.1906 63.2207C59.104 68.5174 60.4138 72.1946 59.8157 75.0591C59.2156 77.9214 55.1059 78.333 54.149 77.2136Z" fill="white"/>
</mask>
<g mask="url(#mask0_2207_18496)">
<g style="mix-blend-mode:multiply" opacity="0.7">
<path d="M31.9982 51.9062H11.8516L12.1577 53.7171C12.1577 53.7171 18.0413 56.349 31.9982 56.349C45.955 56.349 51.8386 53.7171 51.8386 53.7171L52.1448 51.9062H31.9982Z" fill="#F8C788"/>
</g>
</g>
<path d="M9.51312 77.1293C9.81521 74.734 10.5289 72.382 11.4351 70.1554C12.8868 66.4082 14.9304 62.84 17.6492 59.8954C18.0385 59.4735 18.6974 60.0065 18.3689 60.4859C16.5625 63.0458 14.9487 65.688 13.6673 68.5504C12.3718 71.4169 11.1858 74.2957 10.1923 77.2898C10.0565 77.6849 9.45838 77.5511 9.51109 77.1293H9.51312Z" fill="#705842"/>
<path d="M46.3149 59.9273C49.0418 62.8637 51.0996 66.4175 52.5735 70.1544C53.494 72.383 54.2218 74.7186 54.5462 77.1159C54.6091 77.6036 53.9157 77.7744 53.7576 77.3032C52.5269 73.5765 51.0672 69.9487 49.3357 66.436C48.2774 64.3371 47.0143 62.3905 45.6722 60.4541C45.3822 60.0343 45.9641 59.5445 46.3149 59.9273Z" fill="#705842"/>
<path d="M31.9532 13.5783C31.2983 14.1442 30.9334 15.0393 31.0206 15.8583C31.0713 16.3254 31.2395 16.5888 31.5213 16.6382C32.0323 16.7287 32.8574 16.2225 33.346 15.2142C33.6988 14.4878 33.9218 13.7141 33.9948 12.9795C33.8752 12.9671 33.7596 12.9609 33.6502 12.9609C32.8615 12.9609 32.308 13.2696 31.9512 13.5783H31.9532Z" fill="#F8C788"/>
<path d="M24.3269 13.3252C23.7957 15.7699 24.2113 17.9799 25.4927 19.5521C26.403 20.6674 28.1973 21.9679 31.6115 21.9679C31.7473 21.9679 31.8872 21.9659 32.0271 21.9617C35.7292 21.8486 37.9472 19.2619 38.4439 16.9058C38.896 14.7575 38.0384 12.8622 36.2077 11.965C36.0029 11.8642 35.7981 11.7757 35.5954 11.6975C35.4555 10.5637 35.0094 9.55333 34.2816 8.7508C33.9775 8.41538 33.4645 8.3948 33.1361 8.70141C32.8076 9.00802 32.7853 9.53069 33.0874 9.86405C33.4645 10.2797 33.7281 10.7695 33.8781 11.323C32.759 11.2695 31.7291 11.6111 30.9019 12.3272C29.8354 13.2512 29.2637 14.6731 29.4097 16.0395C29.5394 17.2494 30.2247 18.0808 31.2425 18.2619C31.3763 18.2865 31.5121 18.2968 31.648 18.2968C32.8523 18.2968 34.1052 17.3811 34.8026 15.9448C35.1939 15.1402 35.4494 14.3047 35.567 13.4816C36.6598 14.0537 37.1423 15.1978 36.8564 16.5601C36.4895 18.3071 34.8067 20.227 31.9784 20.3135C29.58 20.3875 27.7674 19.7579 26.7416 18.4985C25.7846 17.3256 25.4906 15.6135 25.9103 13.6771C26.8287 9.46073 28.992 6.42962 33.1462 3.54462C33.3672 3.39028 33.4889 3.14335 33.497 2.89024C33.2294 2.87995 32.9617 2.86966 32.688 2.86555C32.461 2.86143 32.2339 2.85938 32.0028 2.85938C31.7716 2.85938 31.5263 2.86555 31.2891 2.86966C27.4187 5.79377 25.2555 9.05741 24.3269 13.3232V13.3252ZM33.349 15.2184C32.8604 16.2267 32.0352 16.7329 31.5243 16.6424C31.2425 16.5909 31.0742 16.3296 31.0235 15.8625C30.9363 15.0435 31.3013 14.1484 31.9561 13.5825C32.3109 13.2738 32.8664 12.9651 33.6551 12.9651C33.7646 12.9651 33.8802 12.9713 33.9998 12.9836C33.9268 13.7183 33.7038 14.492 33.351 15.2184H33.349Z" fill="#705842"/>
<path d="M60.8504 4.91406C61.5945 6.64671 61.7141 8.56251 61.2275 10.2931C60.5037 12.8736 58.4357 15.0425 55.0925 15.5651C54.0139 13.7275 52.7731 12.0257 51.3438 10.505C51.5972 10.005 52.9556 7.60975 56.3272 6.1014C56.3272 6.1014 57.7809 5.40587 60.8504 4.91406Z" fill="#FFF3C5"/>
<path d="M7.67543 6.1014C11.0491 7.60975 12.4054 10.005 12.6589 10.505C11.2295 12.0257 9.98874 13.7275 8.91014 15.5651C3.32253 14.6906 1.30118 9.22923 3.15223 4.91406C6.22379 5.40587 7.67543 6.1014 7.67543 6.1014Z" fill="#FFF3C5"/>
<path d="M17.213 39.3248C20.1609 43.6564 18.5187 50.4553 17.213 53.3156H17.1887C17.1705 53.328 17.1502 53.3403 17.1319 53.3527C16.029 53.2024 14.9524 53.0378 13.8962 52.8691C9.87981 52.2229 0.90639 50.4656 0.062978 42.3806C-0.660816 35.4253 5.09304 33.0156 5.09304 33.0156C10.5306 33.3222 14.2672 34.9932 17.213 39.3248Z" fill="#FC9268"/>
<path d="M63.5058 38.1354C63.9092 39.3083 64.1079 40.7138 63.9336 42.3806C63.4713 46.8151 60.564 49.3441 57.3687 50.8339C54.7392 52.0583 51.9129 52.5769 50.1004 52.8691C49.0461 53.0378 47.9696 53.2024 46.8666 53.3527C46.8484 53.3403 46.8281 53.328 46.8099 53.3156H46.7835C45.4778 50.4553 43.8356 43.6564 46.7835 39.3248C49.7294 34.9932 53.468 33.3222 58.9035 33.0156C58.9035 33.0156 62.2305 34.4087 63.5058 38.1354Z" fill="#FC9268"/>
<path d="M58.3446 1.65742C59.4922 2.5649 60.3254 3.69257 60.8465 4.91077C57.777 5.40258 56.3233 6.09811 56.3233 6.09811C52.9517 7.60646 51.5933 10.0017 51.3399 10.5018C49.8233 8.88846 48.0939 7.47682 46.1172 6.32241C46.4071 1.85497 53.126 -2.46019 58.3446 1.65742Z" fill="#F8C788"/>
<path d="M17.8856 6.32241C15.9088 7.47888 14.1794 8.88846 12.6629 10.5018C12.4095 10.0017 11.0531 7.60646 7.67945 6.09811C7.67945 6.09811 6.22781 5.40258 3.15625 4.91077C3.6773 3.69257 4.51058 2.5649 5.6581 1.65742C10.8767 -2.46019 17.5956 1.85497 17.8856 6.32241Z" fill="#F8C788"/>
<path d="M43.7657 29.2344C45.1525 29.2344 46.2757 30.3744 46.2757 31.7819C46.2757 33.1894 45.1525 34.3274 43.7657 34.3274C42.379 34.3274 41.2578 33.1874 41.2578 31.7819C41.2578 30.3764 42.381 29.2344 43.7657 29.2344Z" fill="#705842"/>
<path d="M20.2345 29.2344C21.6192 29.2344 22.7445 30.3744 22.7445 31.7819C22.7445 33.1894 21.6192 34.3274 20.2345 34.3274C18.8498 34.3274 17.7266 33.1874 17.7266 31.7819C17.7266 30.3764 18.8498 29.2344 20.2345 29.2344Z" fill="#705842"/>
<path d="M59.0158 29.6302C58.9205 26.4098 58.2697 21.3415 55.5834 16.4317C55.4232 16.1394 55.259 15.8514 55.0927 15.5653C54.0141 13.7277 52.7733 12.0259 51.344 10.5052C49.8275 8.89195 48.0981 7.48031 46.1213 6.3259C42.7091 4.32985 38.557 3.09724 33.4985 2.89352C33.4904 3.14663 33.3708 3.39356 33.1478 3.54789C28.9936 6.4329 26.8283 9.46401 25.9119 13.6804C25.4922 15.6168 25.7862 17.3309 26.7431 18.5018C27.771 19.7611 29.5835 20.3888 31.98 20.3167C34.8082 20.2303 36.491 18.3104 36.858 16.5633C37.1438 15.2011 36.6613 14.057 35.5685 13.4849C35.4509 14.308 35.1955 15.1435 34.8042 15.9481C34.1067 17.3865 32.8538 18.3001 31.6495 18.3001C31.5137 18.3001 31.3778 18.2878 31.244 18.2651C30.2283 18.084 29.543 17.2527 29.4112 16.0427C29.2632 14.6764 29.837 13.2544 30.9034 12.3305C31.7306 11.6144 32.7605 11.2728 33.8797 11.3263C33.7296 10.7728 33.4681 10.283 33.089 9.86733C32.7849 9.53397 32.8072 9.0113 33.1376 8.70469C33.4681 8.39808 33.981 8.41866 34.2831 8.75408C35.011 9.55661 35.459 10.569 35.5969 11.7008C35.8017 11.779 36.0044 11.8675 36.2092 11.9683C38.04 12.8655 38.8955 14.7587 38.4455 16.9091C37.9508 19.2652 35.7307 21.8518 32.0286 21.965C31.8867 21.9691 31.7488 21.9712 31.613 21.9712C28.1988 21.9712 26.4045 20.6707 25.4942 19.5554C24.2108 17.9832 23.7973 15.7732 24.3284 13.3285C25.257 9.06274 27.4223 5.7991 31.2906 2.875C25.8774 2.97583 21.4738 4.23108 17.8853 6.33001C15.9085 7.48443 14.1791 8.894 12.6626 10.5073C11.2332 12.028 9.99245 13.7298 8.91386 15.5674C8.74761 15.8534 8.58339 16.1415 8.42322 16.4337C4.00341 24.5084 5.0962 33.0194 5.0962 33.0194C10.5338 33.326 14.2703 34.9969 17.2162 39.3286C20.1641 43.6602 18.5219 50.4591 17.2162 53.3194H17.1919C17.1736 53.3317 17.1533 53.3441 17.1351 53.3564C21.6299 53.982 26.5343 54.4285 32.0043 54.4285C37.4743 54.4285 42.3787 53.982 46.8735 53.3564C46.8553 53.3441 46.835 53.3317 46.8167 53.3194H46.7904C45.4847 50.4591 43.8425 43.6602 46.7904 39.3286C49.7362 34.9969 53.4748 33.326 58.9104 33.0194C58.9104 33.0194 59.0787 31.7107 59.0158 29.6323V29.6302ZM20.2371 34.3302C18.8523 34.3302 17.7291 33.1902 17.7291 31.7847C17.7291 30.3793 18.8523 29.2372 20.2371 29.2372C21.6218 29.2372 22.747 30.3772 22.747 31.7847C22.747 33.1923 21.6218 34.3302 20.2371 34.3302ZM32.0043 35.6472C30.8203 35.6472 29.9728 35.3282 30.0803 34.6121C30.1816 33.9228 31.0636 33.5524 32.0043 33.5791C32.943 33.5524 33.8249 33.9228 33.9283 34.6121C34.0338 35.3282 33.1863 35.6472 32.0043 35.6472ZM43.7695 34.3302C42.3848 34.3302 41.2616 33.1902 41.2616 31.7847C41.2616 30.3793 42.3848 29.2372 43.7695 29.2372C45.1542 29.2372 46.2795 30.3772 46.2795 31.7847C46.2795 33.1923 45.1563 34.3302 43.7695 34.3302Z" fill="#F8C788"/>
<path d="M34.6506 36.8678L32.8178 35.9336V35.5879C33.5518 35.4644 34.01 35.1516 33.9309 34.6125C33.8275 33.9231 32.9456 33.5527 32.0069 33.5795C31.0661 33.5527 30.1842 33.9231 30.0828 34.6125C30.0017 35.1496 30.4599 35.4644 31.1959 35.5879V35.9336L29.3611 36.8678C28.9617 37.0715 28.7995 37.5654 29.0002 37.9728C29.2009 38.3782 29.6875 38.5428 30.0889 38.3391L32.0089 37.3617L33.9269 38.3391C34.0444 38.3988 34.1681 38.4276 34.2898 38.4276C34.5858 38.4276 34.8737 38.2609 35.0156 37.9728C35.2163 37.5675 35.0541 37.0715 34.6547 36.8678H34.6506Z" fill="#705842"/>
</svg>

<svg xmlns="http://www.w3.org/2000/svg" width="64" height="102" fill="none" viewBox="0 0 64 102"><path fill="#FFF3C5" d="M39.932 97.778s-3.481.96-7.93.83c-4.45.13-7.929-.83-7.929-.83h-.186c-8.729-3.447-8.6-14.567-5.637-22.103 2.166-5.504 7.338-10.862 13.752-10.862 6.415 0 11.587 5.358 13.75 10.862 2.965 7.536 3.092 18.656-5.636 22.103h-.184Z"/><path fill="#F8C788" d="M54.149 77.214c.827 3.593.99 6.7.916 9.085-.044 1.417-.212 2.872-.618 4.212-.629 2.089-1.833 3.893-4.043 4.823 0 0 4.193 1.266 3.952 4.108-.242 2.839-7.725 2.776-11.094 2.329-3.305-.436-3.85-1.918-3.333-3.992h.184c8.728-3.447 8.6-14.567 5.636-22.103-2.163-5.504-7.337-10.863-13.75-10.863-6.412 0-11.586 5.359-13.752 10.863-2.964 7.536-3.092 18.656 5.637 22.103h.186c.515 2.074-.03 3.556-3.335 3.992-3.37.447-10.853.51-11.094-2.33-.242-2.841 3.953-4.107 3.953-4.107-3.629-1.526-4.55-5.412-4.66-9.035a35.536 35.536 0 0 1 .916-9.085c-.96 1.119-5.069.707-5.67-2.155-.597-2.864.713-6.542 3.628-11.838 2.49-4.527 5.873-7.624 9.322-9.87 4.495.626 9.4 1.073 14.87 1.073 5.47 0 10.374-.447 14.868-1.072 3.447 2.245 6.833 5.342 9.323 9.869 2.913 5.296 4.223 8.974 3.625 11.838-.6 2.862-4.71 3.274-5.667 2.155Z"/><mask id="a" width="56" height="49" x="4" y="53" maskUnits="userSpaceOnUse" style="mask-type:luminance"><path fill="#fff" d="M54.149 77.214c.827 3.593.99 6.7.916 9.085-.044 1.417-.212 2.872-.618 4.212-.629 2.089-1.833 3.893-4.043 4.823 0 0 4.193 1.266 3.952 4.108-.242 2.839-7.725 2.776-11.094 2.329-3.305-.436-3.85-1.918-3.333-3.992h.184c8.728-3.447 8.6-14.567 5.636-22.103-2.163-5.504-7.337-10.863-13.75-10.863-6.412 0-11.586 5.359-13.752 10.863-2.964 7.536-3.092 18.656 5.637 22.103h.186c.515 2.074-.03 3.556-3.335 3.992-3.37.447-10.853.51-11.094-2.33-.242-2.841 3.953-4.107 3.953-4.107-3.629-1.526-4.55-5.412-4.66-9.035a35.536 35.536 0 0 1 .916-9.085c-.96 1.119-5.069.707-5.67-2.155-.597-2.864.713-6.542 3.628-11.838 2.49-4.527 5.873-7.624 9.322-9.87 4.495.626 9.4 1.073 14.87 1.073 5.47 0 10.374-.447 14.868-1.072 3.447 2.245 6.833 5.342 9.323 9.869 2.913 5.296 4.223 8.974 3.625 11.838-.6 2.862-4.71 3.274-5.667 2.155Z"/></mask><g mask="url(#a)"><path fill="#F8C788" d="M31.998 51.906H11.852l.306 1.811s5.883 2.632 19.84 2.632 19.84-2.632 19.84-2.632l.307-1.81H31.998Z" opacity=".7" style="mix-blend-mode:multiply"/></g><path fill="#705842" d="M9.513 77.13c.302-2.396 1.016-4.748 1.922-6.975 1.452-3.747 3.495-7.315 6.214-10.26.39-.422 1.048.111.72.59-1.806 2.56-3.42 5.203-4.702 8.065-1.295 2.867-2.481 5.746-3.475 8.74-.136.395-.734.261-.68-.16h.001Zm36.802-17.203c2.727 2.937 4.785 6.49 6.259 10.227.92 2.229 1.648 4.565 1.972 6.962.063.488-.63.658-.788.187a84.365 84.365 0 0 0-4.422-10.867c-1.059-2.099-2.322-4.046-3.664-5.982-.29-.42.292-.91.643-.527Z"/><path fill="#F8C788" d="M31.953 13.578c-.655.566-1.02 1.461-.932 2.28.05.467.218.73.5.78.511.09 1.336-.416 1.825-1.424a6.7 6.7 0 0 0 .649-2.235 3.355 3.355 0 0 0-.345-.018 2.54 2.54 0 0 0-1.699.617h.002Z"/><path fill="#705842" d="M24.327 13.325c-.531 2.445-.116 4.655 1.166 6.227.91 1.115 2.704 2.416 6.119 2.416.135 0 .275-.002.415-.006 3.702-.113 5.92-2.7 6.417-5.056.452-2.148-.406-4.044-2.236-4.941a7.71 7.71 0 0 0-.613-.268c-.14-1.133-.586-2.144-1.313-2.946a.803.803 0 0 0-1.146-.05.833.833 0 0 0-.049 1.163c.377.416.641.905.791 1.459-1.119-.053-2.149.288-2.976 1.004-1.067.924-1.638 2.346-1.492 3.713.13 1.21.815 2.04 1.832 2.222.134.024.27.035.406.035 1.204 0 2.457-.916 3.155-2.352.39-.805.646-1.64.764-2.463 1.093.572 1.575 1.716 1.29 3.078-.367 1.747-2.05 3.667-4.879 3.754-2.398.073-4.21-.556-5.236-1.816-.957-1.172-1.251-2.885-.832-4.82.919-4.217 3.082-7.248 7.236-10.133a.828.828 0 0 0 .351-.655 34.317 34.317 0 0 0-1.494-.03c-.231 0-.477.006-.714.01-3.87 2.924-6.034 6.187-6.962 10.453v.002Zm9.022 1.893c-.489 1.009-1.314 1.515-1.825 1.424-.282-.051-.45-.312-.5-.78-.088-.819.277-1.714.932-2.28a2.53 2.53 0 0 1 1.7-.617c.109 0 .224.006.344.019a6.708 6.708 0 0 1-.649 2.234h-.002Z"/><path fill="#FFF3C5" d="M60.85 4.914c.744 1.733.864 3.649.377 5.38-.723 2.58-2.791 4.748-6.134 5.271-1.08-1.838-2.32-3.54-3.75-5.06.254-.5 1.613-2.895 4.984-4.404 0 0 1.454-.695 4.523-1.187ZM7.675 6.101c3.374 1.509 4.73 3.904 4.984 4.404-1.43 1.52-2.67 3.222-3.749 5.06-5.587-.874-7.609-6.336-5.758-10.65C6.224 5.404 7.675 6.1 7.675 6.1Z"/><path fill="#FC9268" d="M17.213 39.325c2.948 4.331 1.306 11.13 0 13.99h-.024l-.057.038c-1.103-.15-2.18-.315-3.236-.484C9.88 52.223.906 50.466.063 42.381a8.992 8.992 0 0 1 5.03-9.365c5.438.306 9.174 1.977 12.12 6.309Zm46.293-1.19c.403 1.173.602 2.579.428 4.246-.463 4.434-3.37 6.963-6.565 8.453-2.63 1.224-5.456 1.743-7.269 2.035-1.054.169-2.13.333-3.233.484l-.057-.037h-.027c-1.305-2.86-2.947-9.66 0-13.991 2.946-4.332 6.685-6.003 12.12-6.31 0 0 3.328 1.394 4.603 5.12Z"/><path fill="#F8C788" d="M58.345 1.657a8.308 8.308 0 0 1 2.502 3.254c-3.07.492-4.524 1.187-4.524 1.187-3.371 1.508-4.73 3.904-4.983 4.404a23.215 23.215 0 0 0-5.223-4.18c.29-4.467 7.009-8.782 12.228-4.665ZM17.886 6.322a23.267 23.267 0 0 0-5.223 4.18c-.254-.5-1.61-2.896-4.984-4.404 0 0-1.451-.695-4.523-1.187a8.308 8.308 0 0 1 2.502-3.254c5.219-4.117 11.938.198 12.228 4.665Z"/><path fill="#705842" d="M43.766 29.234c1.387 0 2.51 1.14 2.51 2.548 0 1.407-1.123 2.545-2.51 2.545-1.387 0-2.508-1.14-2.508-2.545 0-1.406 1.123-2.548 2.508-2.548Zm-23.531 0c1.384 0 2.51 1.14 2.51 2.548 0 1.407-1.126 2.545-2.51 2.545-1.385 0-2.508-1.14-2.508-2.545 0-1.406 1.123-2.548 2.508-2.548Z"/><path fill="#F8C788" d="M59.016 29.63c-.096-3.22-.746-8.288-3.433-13.198-.16-.293-.324-.58-.49-.867-1.079-1.837-2.32-3.54-3.749-5.06a23.212 23.212 0 0 0-5.223-4.18c-3.411-1.995-7.564-3.227-12.623-3.43a.822.822 0 0 1-.35.654c-4.154 2.885-6.32 5.916-7.236 10.132-.42 1.937-.126 3.65.831 4.822 1.028 1.26 2.84 1.887 5.237 1.815 2.828-.087 4.511-2.007 4.878-3.754.286-1.362-.197-2.506-1.29-3.078a8.355 8.355 0 0 1-.764 2.463c-.697 1.439-1.95 2.352-3.155 2.352a2.4 2.4 0 0 1-.405-.035c-1.016-.181-1.701-1.012-1.833-2.222-.148-1.367.426-2.789 1.492-3.712.828-.717 1.858-1.058 2.977-1.005a3.488 3.488 0 0 0-.791-1.459.83.83 0 0 1 .049-1.162.802.802 0 0 1 1.145.05c.728.802 1.176 1.814 1.314 2.946.205.078.407.166.612.267 1.831.898 2.686 2.79 2.236 4.941-.494 2.356-2.714 4.943-6.416 5.056-.142.004-.28.006-.416.006-3.414 0-5.209-1.3-6.119-2.416-1.283-1.572-1.697-3.782-1.166-6.226.929-4.266 3.094-7.53 6.963-10.454-5.414.1-9.817 1.356-13.406 3.455a23.203 23.203 0 0 0-5.222 4.177c-1.43 1.521-2.67 3.223-3.75 5.06-.165.286-.33.575-.49.867-4.42 8.074-3.327 16.585-3.327 16.585 5.438.307 9.174 1.978 12.12 6.31 2.948 4.331 1.306 11.13 0 13.99h-.024c-.018.013-.039.025-.057.037 4.495.626 9.4 1.072 14.87 1.072 5.47 0 10.374-.446 14.868-1.072l-.056-.037h-.027c-1.305-2.86-2.947-9.659 0-13.99 2.946-4.332 6.685-6.003 12.12-6.31 0 0 .169-1.308.106-3.387v-.002Zm-38.779 4.7c-1.385 0-2.508-1.14-2.508-2.545 0-1.406 1.123-2.548 2.508-2.548s2.51 1.14 2.51 2.548c0 1.407-1.125 2.545-2.51 2.545Zm11.767 1.317c-1.184 0-2.031-.319-1.924-1.035.102-.69.984-1.06 1.924-1.033.939-.027 1.82.344 1.924 1.033.106.716-.742 1.035-1.924 1.035ZM43.77 34.33c-1.385 0-2.508-1.14-2.508-2.545 0-1.406 1.123-2.548 2.508-2.548 1.384 0 2.51 1.14 2.51 2.548 0 1.407-1.124 2.545-2.51 2.545Z"/><path fill="#705842" d="m34.65 36.868-1.832-.934v-.346c.734-.124 1.192-.436 1.113-.976-.103-.689-.985-1.06-1.924-1.032-.94-.027-1.823.343-1.924 1.032-.081.538.377.852 1.113.976v.346l-1.835.934a.83.83 0 0 0-.36 1.105c.2.405.686.57 1.088.366l1.92-.977 1.918.977a.8.8 0 0 0 1.089-.366.83.83 0 0 0-.361-1.105h-.004Z"/></svg>
